svg/Meteorology/thunderstorms/hail/thunderstorm_mild.svg

<?xml version="1.0" encoding="UTF-8" standalone="no"?>
<!-- Created with Inkscape (http://www.inkscape.org/) -->
<svg
   xmlns:dc="http://purl.org/dc/elements/1.1/"
   xmlns:cc="http://web.resource.org/cc/"
   xmlns:rdf="http://www.w3.org/1999/02/22-rdf-syntax-ns#"
   xmlns:svg="http://www.w3.org/2000/svg"
   xmlns="http://www.w3.org/2000/svg"
   xmlns:sodipodi="http://sodipodi.sourceforge.net/DTD/sodipodi-0.dtd"
   xmlns:inkscape="http://www.inkscape.org/namespaces/inkscape"
   width="744.09448819"
   height="1052.3622047"
   id="svg2"
   sodipodi:version="0.32"
   inkscape:version="0.44.1"
   sodipodi:docbase="C:\Documents and Settings\pc\Desktop\meteo\meteo svg\thunderstorms\hail"
   sodipodi:docname="thunderstorm_mild.svg">
  <defs
     id="defs4" />
  <sodipodi:namedview
     id="base"
     pagecolor="#ffffff"
     bordercolor="#666666"
     borderopacity="1.0"
     inkscape:pageopacity="0.0"
     inkscape:pageshadow="2"
     inkscape:zoom="2.8"
     inkscape:cx="375"
     inkscape:cy="604.12096"
     inkscape:document-units="px"
     inkscape:current-layer="layer1"
     showgrid="true"
     inkscape:window-width="1280"
     inkscape:window-height="744"
     inkscape:window-x="-4"
     inkscape:window-y="-4" />
  <metadata
     id="metadata7">
    <rdf:RDF>
      <cc:Work
         rdf:about="">
        <dc:format>image/svg+xml</dc:format>
        <dc:type
           rdf:resource="http://purl.org/dc/dcmitype/StillImage" />
      </cc:Work>
    </rdf:RDF>
  </metadata>
  <g
     inkscape:label="Livello 1"
     inkscape:groupmode="layer"
     id="layer1">
    <g
       id="g5020">
      <path
         id="path3539"
         d="M 464.41885,410.74168 L 492.01717,410.74168 L 477.53939,387.3678 L 464.41885,410.74168 z "
         style="fill:none;fill-rule:evenodd;stroke:black;stroke-width:3.58271217;stroke-linecap:butt;stroke-linejoin:miter;stroke-miterlimit:4;stroke-dasharray:none;stroke-opacity:1" />
      <path
         id="path1935"
         d="M 448.92856,536.93566 L 449.2857,419.43566 L 512.49999,419.7928"
         style="fill:none;fill-rule:evenodd;stroke:black;stroke-width:4.5;stroke-linecap:butt;stroke-linejoin:miter;stroke-miterlimit:4;stroke-dasharray:none;stroke-opacity:1" />
      <path
         sodipodi:nodetypes="cccc"
         id="path2824"
         d="M 511.42856,421.22137 L 473.57142,477.64994 L 491.78571,506.93566 L 509.99999,536.22137"
         style="fill:none;fill-rule:evenodd;stroke:black;stroke-width:2.70000005;stroke-linecap:butt;stroke-linejoin:miter;stroke-miterlimit:4;stroke-dasharray:none;stroke-opacity:1" />
      <path
         id="path4598"
         d="M 510.98483,531.48689 L 505.08437,535.55955 L 510.60137,536.95435 L 510.98483,531.48689 z "
         style="fill:black;fill-opacity:1;fill-rule:evenodd;stroke:black;stroke-width:0.78356653px;stroke-linecap:butt;stroke-linejoin:miter;stroke-opacity:1" />
    </g>
  </g>
</svg>

<svg xmlns="http://www.w3.org/2000/svg" viewBox="0 0 744.09 1052.36"><g fill-rule="evenodd" stroke="#000"><g fill="none"><path d="m464.42 410.74h27.598l-14.478-23.374-13.12 23.374z" stroke-width="3.583"/><path d="m448.93 536.94l.357-117.5 63.21.357" stroke-width="4.5"/><path d="m511.43 421.22l-37.857 56.43 18.214 29.29 18.214 29.29" stroke-width="2.7"/></g><path d="m510.98 531.49l-5.9 4.073 5.517 1.395.383-5.467z" stroke-width=".784"/></g></svg>
